Flat-Remix-Blue-Light/actions/scalable/chronometer-pause.svg

<svg xmlns="http://www.w3.org/2000/svg" width="24" height="24" viewBox="0 0 24 24">
 <defs>
  <style id="current-color-scheme" type="text/css">
   .ColorScheme-Text { color:#31363b; } .ColorScheme-Highlight { color:#3daee9; }
  </style>
 </defs>
 <path style="fill:currentColor" class="ColorScheme-Text" d="m8 1c-1.7915 0-3.5824 0.6839-4.9492 2.0508-2.7337 2.7337-2.7337 7.1652 0 9.8982 2.7336 2.734 7.1652 2.734 9.8982 0 2.734-2.733 2.734-7.1646 0-9.8982-1.367-1.3669-3.1576-2.0508-4.949-2.0508zm-3 3h2v8h-2v-8zm4 0h2v8h-2v-8z" transform="translate(4 4)"/>
</svg>

<svg xmlns="http://www.w3.org/2000/svg" width="24" height="24" version="1.1">
 <defs>
  <style id="current-color-scheme" type="text/css">
   .ColorScheme-Text { color:#000000; } .ColorScheme-Highlight { color:#367bf0; }
  </style>
 </defs>
 <g transform="matrix(1,0,0,1,4,4)">
  <path style="fill:currentColor" class="ColorScheme-Text" d="M 8 1 A 7 7 0 0 0 1 8 A 7 7 0 0 0 8 15 A 7 7 0 0 0 15 8 A 7 7 0 0 0 8 1 z M 5 4 L 7 4 L 7 12 L 5 12 L 5 4 z M 9 4 L 11 4 L 11 12 L 9 12 L 9 4 z"/>
 </g>
</svg>
